tenants/vtwonen/icons/direction_left.svg

<svg fill="none" height="24" viewBox="0 0 24 24" width="24" xmlns="http://www.w3.org/2000/svg"><path d="m16.5628 21.8424.292-.317c.1936-.2101.1936-.5507 0-.7608l-8.07414-8.7646 8.07414-8.7646c.1936-.21009.1936-.55073 0-.76086l-.292-.31697c-.1935-.21009-.5073-.21009-.7009 0l-8.71675 9.46203c-.19354.2101-.19354.5507 0 .7608l8.71675 9.462c.1936.2101.5074.2101.7009 0z" fill="#000"/></svg>

<svg width="24" height="24" viewBox="0 0 24 24" fill="none" xmlns="http://www.w3.org/2000/svg">
<path d="M16.5628 21.8424L16.8548 21.5254C17.0484 21.3153 17.0484 20.9747 16.8548 20.7646L8.78066 12L16.8548 3.2354C17.0484 3.02531 17.0484 2.68467 16.8548 2.47454L16.5628 2.15757C16.3693 1.94748 16.0555 1.94748 15.8619 2.15757L7.14515 11.6196C6.95161 11.8297 6.95161 12.1703 7.14515 12.3804L15.8619 21.8424C16.0555 22.0525 16.3693 22.0525 16.5628 21.8424Z" fill="black"/>
</svg>
